packages/core/assets/Icons/more_up.svg

<svg viewBox="0 0 20 20" fill="none" xmlns="http://www.w3.org/2000/svg">
<path d="M14.1667 5.83329H7.5C7.26389 5.83329 7.06597 5.75343 6.90625 5.59371C6.74653 5.43399 6.66667 5.23607 6.66667 4.99996C6.66667 4.76385 6.74653 4.56593 6.90625 4.40621C7.06597 4.24649 7.26389 4.16663 7.5 4.16663H15C15.2361 4.16663 15.434 4.24649 15.5938 4.40621C15.7535 4.56593 15.8333 4.76385 15.8333 4.99996V12.5C15.8333 12.7361 15.7535 12.934 15.5938 13.0937C15.434 13.2534 15.2361 13.3333 15 13.3333C14.7639 13.3333 14.566 13.2534 14.4062 13.0937C14.2465 12.934 14.1667 12.7361 14.1667 12.5V5.83329ZM10 9.99996H3.33333C3.09722 9.99996 2.89931 9.9201 2.73958 9.76038C2.57986 9.60065 2.5 9.40274 2.5 9.16663C2.5 8.93051 2.57986 8.7326 2.73958 8.57288C2.89931 8.41315 3.09722 8.33329 3.33333 8.33329H10.8333C11.0694 8.33329 11.2674 8.41315 11.4271 8.57288C11.5868 8.7326 11.6667 8.93051 11.6667 9.16663V16.6666C11.6667 16.9027 11.5868 17.1007 11.4271 17.2604C11.2674 17.4201 11.0694 17.5 10.8333 17.5C10.5972 17.5 10.3993 17.4201 10.2396 17.2604C10.0799 17.1007 10 16.9027 10 16.6666V9.99996Z" fill="currentColor"/>
</svg>

<svg xmlns="http://www.w3.org/2000/svg" width="20" height="20" fill="none" viewBox="0 0 20 20">
  <path fill="#201F1F" d="M14.167 5.833H7.5a.806.806 0 0 1-.594-.24.806.806 0 0 1-.24-.593c0-.236.08-.434.24-.594.16-.16.358-.24.594-.24H15c.236 0 .434.08.594.24.16.16.24.358.24.594v7.5c0 .236-.08.434-.24.594a.807.807 0 0 1-.594.24.807.807 0 0 1-.594-.24.806.806 0 0 1-.24-.594V5.833ZM10 10H3.333a.806.806 0 0 1-.593-.24.806.806 0 0 1-.24-.593c0-.236.08-.434.24-.594.16-.16.357-.24.593-.24h7.5c.236 0 .434.08.594.24.16.16.24.358.24.594v7.5c0 .236-.08.434-.24.593a.807.807 0 0 1-.594.24.806.806 0 0 1-.593-.24.807.807 0 0 1-.24-.593V10Z"/>
</svg>
